X: 1
T: Crossing The Tay With A Blind Man And A Dog
M: 4/4
L: 1/8
R: reel
K: Amaj
|:cAA/A/A/z/ BAFE-|EFAB cBce|fee/e/e/z/ faef-|fecA BAFE|
cAA/A/A/z/ BAFE-|EFAB cBce|fee/e/e/z/ faec|dBAG A2AB:|
|:dBB/B/B/z/ cAA/A/A/z/|BABc BAFE|dBB/B/B/z/ cAce|fefa fefg|
aefa e3c|dBcA BAFE|c3A BAFE-|EFAB A2AB:|
